images/icons8-email.svg

<svg height="64" viewBox="0 0 64 64" width="64" xmlns="http://www.w3.org/2000/svg"><path d="m7 6c-.554688 0-1 .449219-1 1v8c0 .550781.445312 1 1 1s1-.449219 1-1v-7h7c.554688 0 1-.449219 1-1s-.445312-1-1-1zm12 0c-.554688 0-1 .449219-1 1s.445312 1 1 1h2c.554688 0 1-.449219 1-1s-.445312-1-1-1zm6 0c-.554688 0-1 .449219-1 1s.445312 1 1 1h2c.554688 0 1-.449219 1-1s-.445312-1-1-1zm6 0c-.554688 0-1 .449219-1 1s.445312 1 1 1h2c.554688 0 1-.449219 1-1s-.445312-1-1-1zm6 0c-.554688 0-1 .449219-1 1s.445312 1 1 1h2c.554688 0 1-.449219 1-1s-.445312-1-1-1zm6 0c-.554688 0-1 .449219-1 1s.445312 1 1 1h2c.554688 0 1-.449219 1-1s-.445312-1-1-1zm6 0c-.554688 0-1 .449219-1 1s.445312 1 1 1h7v7c0 .550781.445312 1 1 1s1-.449219 1-1v-8c0-.550781-.445312-1-1-1zm-42 12c-.554688 0-1 .449219-1 1v2c0 .550781.445312 1 1 1s1-.449219 1-1v-2c0-.550781-.445312-1-1-1zm12 0c-.554688 0-1 .449219-1 1s.445312 1 1 1h18c.554688 0 1-.449219 1-1s-.445312-1-1-1zm22 0c-.554688 0-1 .449219-1 1s.445312 1 1 1h4c.554688 0 1-.449219 1-1s-.445312-1-1-1zm16 0c-.554688 0-1 .449219-1 1v2c0 .550781.445312 1 1 1s1-.449219 1-1v-2c0-.550781-.445312-1-1-1zm-38 4c-.554688 0-1 .449219-1 1s.445312 1 1 1h20c.554688 0 1-.449219 1-1s-.445312-1-1-1zm-12 2c-.554688 0-1 .449219-1 1v2c0 .550781.445312 1 1 1s1-.449219 1-1v-2c0-.550781-.445312-1-1-1zm50 0c-.554688 0-1 .449219-1 1v2c0 .550781.445312 1 1 1s1-.449219 1-1v-2c0-.550781-.445312-1-1-1zm-38 2c-.554688 0-1 .449219-1 1s.445312 1 1 1h24c.554688 0 1-.449219 1-1s-.445312-1-1-1zm-12 4c-.554688 0-1 .449219-1 1v2c0 .550781.445312 1 1 1s1-.449219 1-1v-2c0-.550781-.445312-1-1-1zm50 0c-.554688 0-1 .449219-1 1v2c0 .550781.445312 1 1 1s1-.449219 1-1v-2c0-.550781-.445312-1-1-1zm-38 4c-.554688 0-1 .449219-1 1s.445312 1 1 1h26c.554688 0 1-.449219 1-1s-.445312-1-1-1zm-12 2c-.554688 0-1 .449219-1 1v2c0 .550781.445312 1 1 1s1-.449219 1-1v-2c0-.550781-.445312-1-1-1zm50 0c-.554688 0-1 .449219-1 1v2c0 .550781.445312 1 1 1s1-.449219 1-1v-2c0-.550781-.445312-1-1-1zm-38 2c-.554688 0-1 .449219-1 1s.445312 1 1 1h17c.554688 0 1-.449219 1-1s-.445312-1-1-1zm-12 4c-.554688 0-1 .449219-1 1v2c0 .550781.445312 1 1 1s1-.449219 1-1v-2c0-.550781-.445312-1-1-1zm12 0c-.554688 0-1 .449219-1 1s.445312 1 1 1h4c.554688 0 1-.449219 1-1s-.445312-1-1-1zm8 0c-.554688 0-1 .449219-1 1s.445312 1 1 1h14c.554688 0 1-.449219 1-1s-.445312-1-1-1zm30 0c-.554688 0-1 .449219-1 1v2c0 .550781.445312 1 1 1s1-.449219 1-1v-2c0-.550781-.445312-1-1-1zm-50 6c-.554688 0-1 .449219-1 1v8c0 .550781.445312 1 1 1h8c.554688 0 1-.449219 1-1s-.445312-1-1-1h-7v-7c0-.550781-.445312-1-1-1zm50 0c-.554688 0-1 .449219-1 1v7h-7c-.554688 0-1 .449219-1 1s.445312 1 1 1h8c.554688 0 1-.449219 1-1v-8c0-.550781-.445312-1-1-1zm-38 8c-.554688 0-1 .449219-1 1s.445312 1 1 1h2c.554688 0 1-.449219 1-1s-.445312-1-1-1zm6 0c-.554688 0-1 .449219-1 1s.445312 1 1 1h2c.554688 0 1-.449219 1-1s-.445312-1-1-1zm6 0c-.554688 0-1 .449219-1 1s.445312 1 1 1h2c.554688 0 1-.449219 1-1s-.445312-1-1-1zm6 0c-.554688 0-1 .449219-1 1s.445312 1 1 1h2c.554688 0 1-.449219 1-1s-.445312-1-1-1zm6 0c-.554688 0-1 .449219-1 1s.445312 1 1 1h2c.554688 0 1-.449219 1-1s-.445312-1-1-1zm0 0" fill="#044e54"/></svg>

<?xml version="1.0" encoding="UTF-8"?>
<svg xmlns="http://www.w3.org/2000/svg" xmlns:xlink="http://www.w3.org/1999/xlink" viewBox="0 0 64 64" width="64px" height="64px">
<g id="surface16580011">
<path style=" stroke:none;fill-rule:nonzero;fill:rgb(1.568628%,30.588236%,32.941177%);fill-opacity:1;" d="M 7 6 C 6.445312 6 6 6.449219 6 7 L 6 15 C 6 15.550781 6.445312 16 7 16 C 7.554688 16 8 15.550781 8 15 L 8 8 L 15 8 C 15.554688 8 16 7.550781 16 7 C 16 6.449219 15.554688 6 15 6 Z M 19 6 C 18.445312 6 18 6.449219 18 7 C 18 7.550781 18.445312 8 19 8 L 21 8 C 21.554688 8 22 7.550781 22 7 C 22 6.449219 21.554688 6 21 6 Z M 25 6 C 24.445312 6 24 6.449219 24 7 C 24 7.550781 24.445312 8 25 8 L 27 8 C 27.554688 8 28 7.550781 28 7 C 28 6.449219 27.554688 6 27 6 Z M 31 6 C 30.445312 6 30 6.449219 30 7 C 30 7.550781 30.445312 8 31 8 L 33 8 C 33.554688 8 34 7.550781 34 7 C 34 6.449219 33.554688 6 33 6 Z M 37 6 C 36.445312 6 36 6.449219 36 7 C 36 7.550781 36.445312 8 37 8 L 39 8 C 39.554688 8 40 7.550781 40 7 C 40 6.449219 39.554688 6 39 6 Z M 43 6 C 42.445312 6 42 6.449219 42 7 C 42 7.550781 42.445312 8 43 8 L 45 8 C 45.554688 8 46 7.550781 46 7 C 46 6.449219 45.554688 6 45 6 Z M 49 6 C 48.445312 6 48 6.449219 48 7 C 48 7.550781 48.445312 8 49 8 L 56 8 L 56 15 C 56 15.550781 56.445312 16 57 16 C 57.554688 16 58 15.550781 58 15 L 58 7 C 58 6.449219 57.554688 6 57 6 Z M 7 18 C 6.445312 18 6 18.449219 6 19 L 6 21 C 6 21.550781 6.445312 22 7 22 C 7.554688 22 8 21.550781 8 21 L 8 19 C 8 18.449219 7.554688 18 7 18 Z M 19 18 C 18.445312 18 18 18.449219 18 19 C 18 19.550781 18.445312 20 19 20 L 37 20 C 37.554688 20 38 19.550781 38 19 C 38 18.449219 37.554688 18 37 18 Z M 41 18 C 40.445312 18 40 18.449219 40 19 C 40 19.550781 40.445312 20 41 20 L 45 20 C 45.554688 20 46 19.550781 46 19 C 46 18.449219 45.554688 18 45 18 Z M 57 18 C 56.445312 18 56 18.449219 56 19 L 56 21 C 56 21.550781 56.445312 22 57 22 C 57.554688 22 58 21.550781 58 21 L 58 19 C 58 18.449219 57.554688 18 57 18 Z M 19 22 C 18.445312 22 18 22.449219 18 23 C 18 23.550781 18.445312 24 19 24 L 39 24 C 39.554688 24 40 23.550781 40 23 C 40 22.449219 39.554688 22 39 22 Z M 7 24 C 6.445312 24 6 24.449219 6 25 L 6 27 C 6 27.550781 6.445312 28 7 28 C 7.554688 28 8 27.550781 8 27 L 8 25 C 8 24.449219 7.554688 24 7 24 Z M 57 24 C 56.445312 24 56 24.449219 56 25 L 56 27 C 56 27.550781 56.445312 28 57 28 C 57.554688 28 58 27.550781 58 27 L 58 25 C 58 24.449219 57.554688 24 57 24 Z M 19 26 C 18.445312 26 18 26.449219 18 27 C 18 27.550781 18.445312 28 19 28 L 43 28 C 43.554688 28 44 27.550781 44 27 C 44 26.449219 43.554688 26 43 26 Z M 7 30 C 6.445312 30 6 30.449219 6 31 L 6 33 C 6 33.550781 6.445312 34 7 34 C 7.554688 34 8 33.550781 8 33 L 8 31 C 8 30.449219 7.554688 30 7 30 Z M 57 30 C 56.445312 30 56 30.449219 56 31 L 56 33 C 56 33.550781 56.445312 34 57 34 C 57.554688 34 58 33.550781 58 33 L 58 31 C 58 30.449219 57.554688 30 57 30 Z M 19 34 C 18.445312 34 18 34.449219 18 35 C 18 35.550781 18.445312 36 19 36 L 45 36 C 45.554688 36 46 35.550781 46 35 C 46 34.449219 45.554688 34 45 34 Z M 7 36 C 6.445312 36 6 36.449219 6 37 L 6 39 C 6 39.550781 6.445312 40 7 40 C 7.554688 40 8 39.550781 8 39 L 8 37 C 8 36.449219 7.554688 36 7 36 Z M 57 36 C 56.445312 36 56 36.449219 56 37 L 56 39 C 56 39.550781 56.445312 40 57 40 C 57.554688 40 58 39.550781 58 39 L 58 37 C 58 36.449219 57.554688 36 57 36 Z M 19 38 C 18.445312 38 18 38.449219 18 39 C 18 39.550781 18.445312 40 19 40 L 36 40 C 36.554688 40 37 39.550781 37 39 C 37 38.449219 36.554688 38 36 38 Z M 7 42 C 6.445312 42 6 42.449219 6 43 L 6 45 C 6 45.550781 6.445312 46 7 46 C 7.554688 46 8 45.550781 8 45 L 8 43 C 8 42.449219 7.554688 42 7 42 Z M 19 42 C 18.445312 42 18 42.449219 18 43 C 18 43.550781 18.445312 44 19 44 L 23 44 C 23.554688 44 24 43.550781 24 43 C 24 42.449219 23.554688 42 23 42 Z M 27 42 C 26.445312 42 26 42.449219 26 43 C 26 43.550781 26.445312 44 27 44 L 41 44 C 41.554688 44 42 43.550781 42 43 C 42 42.449219 41.554688 42 41 42 Z M 57 42 C 56.445312 42 56 42.449219 56 43 L 56 45 C 56 45.550781 56.445312 46 57 46 C 57.554688 46 58 45.550781 58 45 L 58 43 C 58 42.449219 57.554688 42 57 42 Z M 7 48 C 6.445312 48 6 48.449219 6 49 L 6 57 C 6 57.550781 6.445312 58 7 58 L 15 58 C 15.554688 58 16 57.550781 16 57 C 16 56.449219 15.554688 56 15 56 L 8 56 L 8 49 C 8 48.449219 7.554688 48 7 48 Z M 57 48 C 56.445312 48 56 48.449219 56 49 L 56 56 L 49 56 C 48.445312 56 48 56.449219 48 57 C 48 57.550781 48.445312 58 49 58 L 57 58 C 57.554688 58 58 57.550781 58 57 L 58 49 C 58 48.449219 57.554688 48 57 48 Z M 19 56 C 18.445312 56 18 56.449219 18 57 C 18 57.550781 18.445312 58 19 58 L 21 58 C 21.554688 58 22 57.550781 22 57 C 22 56.449219 21.554688 56 21 56 Z M 25 56 C 24.445312 56 24 56.449219 24 57 C 24 57.550781 24.445312 58 25 58 L 27 58 C 27.554688 58 28 57.550781 28 57 C 28 56.449219 27.554688 56 27 56 Z M 31 56 C 30.445312 56 30 56.449219 30 57 C 30 57.550781 30.445312 58 31 58 L 33 58 C 33.554688 58 34 57.550781 34 57 C 34 56.449219 33.554688 56 33 56 Z M 37 56 C 36.445312 56 36 56.449219 36 57 C 36 57.550781 36.445312 58 37 58 L 39 58 C 39.554688 58 40 57.550781 40 57 C 40 56.449219 39.554688 56 39 56 Z M 43 56 C 42.445312 56 42 56.449219 42 57 C 42 57.550781 42.445312 58 43 58 L 45 58 C 45.554688 58 46 57.550781 46 57 C 46 56.449219 45.554688 56 45 56 Z M 43 56 "/>
</g>
</svg>
